X: 246
T: Xiao guafu Shangfen
%%abc-version 2.0
%%abcx-abcm2ps-target-version 5.9.1 (29 Sep 2008)
%%abc-creator hum2abc beta
%%abcx-conversion-date 2013/10/02 07:52:29
%%abc-edited-by Helmut Schaffrath
%%humdrum-veritas 3801704703
%%humdrum-veritas-data 4188065627
%%continueall 1
%%barnumbers 0
L: 1/8
M: 4/4
K: Bb
b a c' f'b2g f [I:setbarnb 1]| 
b b f cf4 | 
b a c' f' b c' g f | 
b b f cf4 | 
f fb2c' f' c' b | 
b a c' f'2<a2z | 
cf2b c' f' b a | 
b f f cB4 |]  



